cy/group-outline-badged.svg

<svg viewBox="0 0 36 36" xmlns="http://www.w3.org/2000/svg" height="1em" width="1em">
  <path class="clr-i-outline--badged clr-i-outline-path-1--badged" d="M11.09 14.57h.31a6.43 6.43 0 0 1 .09-2 2.09 2.09 0 1 1 1.47-3 6.58 6.58 0 0 1 1.55-1.31 4.09 4.09 0 1 0-3.42 6.33Z"/>
  <path class="clr-i-outline--badged clr-i-outline-path-2--badged" d="M13 18.14a6.53 6.53 0 0 1-1.28-2.2h-.63a8.67 8.67 0 0 0-6.43 2.52l-.24.28v7h2v-6.23a7 7 0 0 1 4.67-1.6 8.09 8.09 0 0 1 1.91.23Z"/>
  <path class="clr-i-outline--badged clr-i-outline-path-3--badged" d="M31.35 18.42A8.59 8.59 0 0 0 25 15.91c-.32 0-.6 0-.9.06a6.53 6.53 0 0 1-1.35 2.25 7.9 7.9 0 0 1 2.25-.31 6.94 6.94 0 0 1 4.64 1.58v6.27h2V18.7Z"/>
  <path class="clr-i-outline--badged clr-i-outline-path-4--badged" d="M17.86 18.3a4.47 4.47 0 1 0-4.47-4.47 4.47 4.47 0 0 0 4.47 4.47Zm0-6.93a2.47 2.47 0 1 1-2.47 2.47 2.47 2.47 0 0 1 2.47-2.47Z"/>
  <path class="clr-i-outline--badged clr-i-outline-path-5--badged" d="M18.1 19.73a9.69 9.69 0 0 0-7.1 2.74l-.25.28v7.33a1.57 1.57 0 0 0 1.61 1.54h11.47a1.57 1.57 0 0 0 1.61-1.54v-7.35l-.25-.28a9.58 9.58 0 0 0-7.09-2.72Zm5.33 9.88h-10.7v-6.06a8.08 8.08 0 0 1 5.37-1.82 8 8 0 0 1 5.33 1.8Z"/>
  <path class="clr-i-outline--badged clr-i-outline-path-6--badged" d="M26.37 12a2 2 0 0 1-2.09.42 6.53 6.53 0 0 1 .15 1.38 6.59 6.59 0 0 1 0 .68 4 4 0 0 0 .57.06 4.08 4.08 0 0 0 3.3-1.7 7.45 7.45 0 0 1-1.93-.84Z"/>
  <path class="clr-i-outline--badged clr-i-outline-path-7--badged" d="M22.95 6.93a4.16 4.16 0 0 0-1.47 1.44A6.59 6.59 0 0 1 23 9.77a2.1 2.1 0 0 1 .59-.83 7.44 7.44 0 0 1-.64-2.01Z"/>
  <circle class="clr-i-outline--badged clr-i-outline-path-8--badged clr-i-badge" cx="30.33" cy="5.67" r="5"/>
  <path fill="none" d="M0 0h36v36H0z"/>
</svg>

<svg version="1.1" viewBox="0 0 36 36" preserveAspectRatio="xMidYMid meet" xmlns="http://www.w3.org/2000/svg" height="1em" width="1em">
  <path class="clr-i-outline--badged clr-i-outline-path-1--badged" d="M11.09,14.57c.1,0,.2,0,.31,0a6.43,6.43,0,0,1,.09-2,2.09,2.09,0,1,1,1.47-3,6.58,6.58,0,0,1,1.55-1.31,4.09,4.09,0,1,0-3.42,6.33Z"/>
  <path class="clr-i-outline--badged clr-i-outline-path-2--badged" d="M13,18.14a6.53,6.53,0,0,1-1.28-2.2l-.63,0a8.67,8.67,0,0,0-6.43,2.52l-.24.28v7h2V19.51a7,7,0,0,1,4.67-1.6A8.09,8.09,0,0,1,13,18.14Z"/>
  <path class="clr-i-outline--badged clr-i-outline-path-3--badged" d="M31.35,18.42A8.59,8.59,0,0,0,25,15.91c-.32,0-.6,0-.9.06a6.53,6.53,0,0,1-1.35,2.25A7.9,7.9,0,0,1,25,17.91a6.94,6.94,0,0,1,4.64,1.58v6.27h2V18.7Z"/>
  <path class="clr-i-outline--badged clr-i-outline-path-4--badged" d="M17.86,18.3a4.47,4.47,0,1,0-4.47-4.47A4.47,4.47,0,0,0,17.86,18.3Zm0-6.93a2.47,2.47,0,1,1-2.47,2.47A2.47,2.47,0,0,1,17.86,11.37Z"/>
  <path class="clr-i-outline--badged clr-i-outline-path-5--badged" d="M18.1,19.73A9.69,9.69,0,0,0,11,22.47l-.25.28v7.33a1.57,1.57,0,0,0,1.61,1.54H23.83a1.57,1.57,0,0,0,1.61-1.54V22.73l-.25-.28A9.58,9.58,0,0,0,18.1,19.73Zm5.33,9.88H12.73V23.55a8.08,8.08,0,0,1,5.37-1.82,8,8,0,0,1,5.33,1.8Z"/>
  <path class="clr-i-outline--badged clr-i-outline-path-6--badged" d="M26.37,12a2,2,0,0,1-2.09.42,6.53,6.53,0,0,1,.15,1.38,6.59,6.59,0,0,1,0,.68,4,4,0,0,0,.57.06,4.08,4.08,0,0,0,3.3-1.7A7.45,7.45,0,0,1,26.37,12Z"/>
  <path class="clr-i-outline--badged clr-i-outline-path-7--badged" d="M22.95,6.93a4.16,4.16,0,0,0-1.47,1.44A6.59,6.59,0,0,1,23,9.77a2.1,2.1,0,0,1,.59-.83A7.44,7.44,0,0,1,22.95,6.93Z"/>
  <circle class="clr-i-outline--badged clr-i-outline-path-8--badged clr-i-badge" cx="30.33" cy="5.67" r="5"/>
  <rect x="0" y="0" width="36" height="36" fill-opacity="0"/>
</svg>
